assets/img/icons/duotone-icons/Communication/Mail-box.svg

<?xml version="1.0" encoding="UTF-8"?>
<svg width="24px" height="24px" viewBox="0 0 24 24" version="1.1" xmlns="http://www.w3.org/2000/svg" xmlns:xlink="http://www.w3.org/1999/xlink">
    <!-- Generator: Sketch 52.2 (67145) - http://www.bohemiancoding.com/sketch -->
    <title>Stockholm-icons / Communication / Mail-box</title>
    <desc>Created with Sketch.</desc>
    <g id="Stockholm-icons-/-Communication-/-Mail-box" stroke="none" stroke-width="1" fill="none" fill-rule="evenodd">
        <rect id="bound" x="0" y="0" width="24" height="24"></rect>
        <path d="M22,15 L22,19 C22,20.1045695 21.1045695,21 20,21 L4,21 C2.8954305,21 2,20.1045695 2,19 L2,15 L6.27924078,15 L6.82339262,16.6324555 C7.09562072,17.4491398 7.8598984,18 8.72075922,18 L15.381966,18 C16.1395101,18 16.8320364,17.5719952 17.1708204,16.8944272 L18.118034,15 L22,15 Z" id="Combined-Shape" fill="#335EEA"></path>
        <path d="M2.5625,13 L5.92654389,7.01947752 C6.2807805,6.38972356 6.94714834,6 7.66969497,6 L16.330305,6 C17.0528517,6 17.7192195,6.38972356 18.0734561,7.01947752 L21.4375,13 L18.118034,13 C17.3604899,13 16.6679636,13.4280048 16.3291796,14.1055728 L15.381966,16 L8.72075922,16 L8.17660738,14.3675445 C7.90437928,13.5508602 7.1401016,13 6.27924078,13 L2.5625,13 Z" id="Path" fill="#335EEA" opacity="0.3"></path>
    </g>
</svg>

<svg width="24" height="24" viewBox="0 0 24 24" xmlns="http://www.w3.org/2000/svg"><g fill="none" fill-rule="evenodd"><path d="M0 0h24v24H0z"/><path d="M22 15v4a2 2 0 01-2 2H4a2 2 0 01-2-2v-4h4.28l.543 1.632A2 2 0 008.721 18h6.661a2 2 0 001.789-1.106L18.118 15H22z" fill="#335EEA"/><path d="M2.563 13l3.364-5.98A2 2 0 017.67 6h8.66a2 2 0 011.743 1.02L21.437 13h-3.319a2 2 0 00-1.789 1.106L15.382 16H8.721l-.544-1.632A2 2 0 006.279 13H2.563z" fill="#335EEA" opacity=".3"/></g></svg>
